apps/frontend/public/images/tt3-logo.svg

<svg width="535.0073494719632" height="351.542801322072" xmlns="http://www.w3.org/2000/svg">

 <g>
  <title>Layer 1</title>
  <g id="svg_1">
   <svg id="svg_4" fill="#9d4dff" preserveAspectRatio="xMinYMin" x="62" y="46.7286" width="158.61879" height="211.5428" viewBox="361.3299865722656 315.1099853515625 277.3399963378906 369.7900390625" xmlns="http://www.w3.org/2000/svg">
    <path id="svg_5" fill=" #0caaed" d="m546.21997,592.45001l-92.45001,0c0,51.06 41.39001,92.45001 92.45001,92.45001l0,0l0,-92.45001z" class="cls-1"/>
    <rect id="svg_6" fill=" #9d4dff" height="184.89" width="92.45" y="407.55" x="453.78" class="cls-5"/>
    <rect id="svg_7" fill=" #ffb64f" transform="rotate(-180 1000 815.11)" height="184.89" width="92.45" y="1130.21999" x="1453.78" class="cls-3"/>
    <rect id="svg_8" fill=" #ed422f" transform="rotate(-90 92.45 1000)" height="184.89" width="92.45" y="1361.33" x="592.45" class="cls-4"/>
    <circle id="svg_9" fill=" #68de00" r="46.22" cy="453.78" cx="407.55" class="cls-6"/>
    <circle id="svg_10" fill=" #1e66f7" r="46.22" cy="638.67" cx="592.45" class="cls-2"/>
   </svg>
  </g>
  <g id="svg_2">
   <svg id="svg_11" width="194.08" height="17.01" viewBox="0.09000000357627869 5.139999866485596 194.0800018310547 17.010000228881836" y="183.7774" x="262.92735">
    <g id="svg_12" fill="#000000"/>
   </svg>
  </g>
  <g transform="matrix(0.896944 0 0 0.732115 26.0961 27.9195)" stroke="null" y="104.22183" x="262.92735" id="svg_3">
   <svg stroke="null" id="svg_14" width="194.06999" height="63.46001" viewBox="0.36000001430511475 24.09000015258789 194.0699920654297 63.46001052856445" y="104.22183" x="242.85921">
    <g stroke="null" id="svg_15" fill="#000000">
     <path stroke="null" id="svg_16" d="m29.12,87.01l-6.65,0l0,-57.17l-22.11,0l0,-5.75l50.88,0l0,5.75l-22.12,0l0,57.17zm74.07,0l-6.65,0l0,-57.17l-22.11,0l0,-5.75l50.88,0l0,5.75l-22.12,0l0,57.17zm68.41,0.54l0,0q-6.83,0 -12.90001,-2.2q-6.06999,-2.2 -9.75,-5.89l0,0l3.14,-5.12q3.06,3.14001 8.23001,5.21001q5.17,2.07 11.28,2.07l0,0q7.81999,0 12,-3.42001q4.17999,-3.41 4.17999,-9.16l0,0q0,-5.76 -4.09,-9.17q-4.09,-3.42 -12.90001,-3.42l0,0l-4.48999,0l0,-4.76l19.41,-24.36l0.89999,2.51l-35.06,0l0,-5.75l40.45,0l0,4.58l-19.41,24.36l-3.14999,-2.06l2.42999,0q11.33,0 16.94,5.03q5.62,5.04 5.62,12.95l0,0q0,5.3 -2.51999,9.52q-2.51001,4.23 -7.59,6.66q-5.08,2.42001 -12.72,2.42001z"/>
    </g>
   </svg>
  </g>
 </g>
</svg>

<svg xmlns="http://www.w3.org/2000/svg" viewBox="19.999999999999986 111.72859933896399 535.0073494719632 351.542801322072"> <g transform="rotate(0 169.30939368824707 287.5)"><svg xmlns="http://www.w3.org/2000/svg" viewBox="361.3299865722656 315.1099853515625 277.3399963378906 369.7900390625" height="211.54280132207202" width="158.61878737649417" y="181.728599338964" x="89.99999999999999" preserveAspectRatio="xMinYMin" fill="#9d4dff" style="overflow: visible;"><path class="cls-1" d="m546.22,592.45h-92.45c0,51.06,41.39,92.45,92.45,92.45h0v-92.45Z" style="fill: #0caaed;"></path><rect class="cls-5" x="453.78" y="407.55" width="92.45" height="184.89" style="fill: #9d4dff;"></rect><rect class="cls-3" x="453.78" y="315.11" width="92.45" height="184.89" transform="translate(1000 815.11) rotate(-180)" style="fill: #ffb64f;"></rect><rect class="cls-4" x="500" y="361.33" width="92.45" height="184.89" transform="translate(92.45 1000) rotate(-90)" style="fill: #ed422f;"></rect><circle class="cls-6" cx="407.55" cy="453.78" r="46.22" style="fill: #68de00;"></circle><circle class="cls-2" cx="592.45" cy="638.67" r="46.22" style="fill: #1e66f7;"></circle></svg></g> <g transform="rotate(0 387.96734855643587 327.2823953440866)"><svg x="290.9273476409085" y="318.77739522964566" viewBox="0.09000000357627869 5.139999866485596 194.0800018310547 17.010000228881836" height="17.010000228881836" width="194.0800018310547" style="overflow: visible;"><g fill="#000000" style=""><path d="M7.38 22.03L5.69 22.03L5.69 7.56L0.09 7.56L0.09 6.10L12.97 6.10L12.97 7.56L7.38 7.56L7.38 22.03ZM20.40 22.15L20.40 22.15Q18.53 22.15 17.12 21.36Q15.71 20.58 14.91 19.20Q14.11 17.82 14.11 16.05L14.11 16.05Q14.11 14.27 14.88 12.91Q15.64 11.54 16.97 10.76Q18.30 9.97 19.96 9.97L19.96 9.97Q21.65 9.97 22.96 10.73Q24.27 11.50 25.02 12.87Q25.77 14.25 25.77 16.05L25.77 16.05Q25.77 16.16 25.76 16.29Q25.74 16.41 25.74 16.55L25.74 16.55L15.34 16.55L15.34 15.34L24.88 15.34L24.24 15.82Q24.24 14.52 23.68 13.51Q23.13 12.50 22.17 11.93Q21.22 11.36 19.96 11.36L19.96 11.36Q18.73 11.36 17.76 11.93Q16.78 12.50 16.23 13.52Q15.68 14.55 15.68 15.87L15.68 15.87L15.68 16.12Q15.68 17.48 16.29 18.52Q16.89 19.55 17.97 20.13Q19.05 20.71 20.44 20.71L20.44 20.71Q21.53 20.71 22.48 20.33Q23.42 19.94 24.11 19.14L24.11 19.14L25.02 20.19Q24.22 21.15 23.02 21.65Q21.83 22.15 20.40 22.15ZM38.11 22.03L36.56 22.03L36.56 19.39L36.49 18.96L36.49 14.55Q36.49 13.02 35.64 12.20Q34.78 11.38 33.10 11.38L33.10 11.38Q31.94 11.38 30.89 11.77Q29.84 12.16 29.11 12.79L29.11 12.79L28.39 11.59Q29.30 10.81 30.57 10.39Q31.85 9.97 33.26 9.97L33.26 9.97Q35.58 9.97 36.84 11.12Q38.11 12.27 38.11 14.61L38.11 14.61L38.11 22.03ZM32.44 22.15L32.44 22.15Q31.09 22.15 30.10 21.70Q29.11 21.26 28.59 20.48Q28.07 19.69 28.07 18.67L28.07 18.67Q28.07 17.73 28.51 16.97Q28.95 16.21 29.97 15.74Q30.98 15.27 32.69 15.27L32.69 15.27L36.81 15.27L36.81 16.48L32.73 16.48Q31.00 16.48 30.33 17.09Q29.66 17.71 29.66 18.62L29.66 18.62Q29.66 19.64 30.46 20.26Q31.25 20.87 32.69 20.87L32.69 20.87Q34.05 20.87 35.04 20.25Q36.03 19.62 36.49 18.44L36.49 18.44L36.85 19.55Q36.40 20.74 35.27 21.44Q34.14 22.15 32.44 22.15ZM44.11 22.03L42.50 22.03L42.50 10.08L44.05 10.08L44.05 13.32L43.80 12.75Q44.34 11.45 45.56 10.71Q46.78 9.97 48.44 9.97L48.44 9.97Q50.19 9.97 51.42 10.85Q52.65 11.72 53.01 13.48L53.01 13.48L52.38 13.23Q52.90 11.77 54.23 10.87Q55.56 9.97 57.43 9.97L57.43 9.97Q58.89 9.97 59.97 10.53Q61.05 11.09 61.65 12.22Q62.26 13.36 62.26 15.09L62.26 15.09L62.26 22.03L60.64 22.03L60.64 15.25Q60.64 13.36 59.74 12.39Q58.84 11.43 57.20 11.43L57.20 11.43Q55.97 11.43 55.07 11.94Q54.18 12.45 53.69 13.42Q53.20 14.39 53.20 15.75L53.20 15.75L53.20 22.03L51.58 22.03L51.58 15.25Q51.58 13.36 50.67 12.39Q49.76 11.43 48.12 11.43L48.12 11.43Q46.91 11.43 46.00 11.94Q45.09 12.45 44.60 13.42Q44.11 14.39 44.11 15.75L44.11 15.75L44.11 22.03ZM77.74 22.03L76.05 22.03L76.05 7.56L70.45 7.56L70.45 6.10L83.33 6.10L83.33 7.56L77.74 7.56L77.74 22.03ZM87.30 22.03L85.68 22.03L85.68 10.08L87.30 10.08L87.30 22.03ZM86.50 7.44L86.50 7.44Q86.00 7.44 85.66 7.10Q85.32 6.76 85.32 6.28L85.32 6.28Q85.32 5.80 85.66 5.47Q86.00 5.14 86.50 5.14L86.50 5.14Q87.00 5.14 87.34 5.46Q87.68 5.78 87.68 6.26L87.68 6.26Q87.68 6.76 87.35 7.10Q87.02 7.44 86.50 7.44ZM93.42 22.03L91.80 22.03L91.80 10.08L93.35 10.08L93.35 13.32L93.10 12.75Q93.65 11.45 94.86 10.71Q96.08 9.97 97.74 9.97L97.74 9.97Q99.50 9.97 100.73 10.85Q101.95 11.72 102.32 13.48L102.32 13.48L101.68 13.23Q102.21 11.77 103.54 10.87Q104.87 9.97 106.74 9.97L106.74 9.97Q108.19 9.97 109.27 10.53Q110.35 11.09 110.96 12.22Q111.56 13.36 111.56 15.09L111.56 15.09L111.56 22.03L109.94 22.03L109.94 15.25Q109.94 13.36 109.05 12.39Q108.15 11.43 106.51 11.43L106.51 11.43Q105.28 11.43 104.38 11.94Q103.48 12.45 102.99 13.42Q102.50 14.39 102.50 15.75L102.50 15.75L102.50 22.03L100.89 22.03L100.89 15.25Q100.89 13.36 99.97 12.39Q99.06 11.43 97.43 11.43L97.43 11.43Q96.22 11.43 95.31 11.94Q94.40 12.45 93.91 13.42Q93.42 14.39 93.42 15.75L93.42 15.75L93.42 22.03ZM121.03 22.15L121.03 22.15Q119.16 22.15 117.75 21.36Q116.34 20.58 115.54 19.20Q114.75 17.82 114.75 16.05L114.75 16.05Q114.75 14.27 115.51 12.91Q116.27 11.54 117.60 10.76Q118.94 9.97 120.60 9.97L120.60 9.97Q122.28 9.97 123.59 10.73Q124.90 11.50 125.65 12.87Q126.40 14.25 126.40 16.05L126.40 16.05Q126.40 16.16 126.39 16.29Q126.38 16.41 126.38 16.55L126.38 16.55L115.98 16.55L115.98 15.34L125.51 15.34L124.88 15.82Q124.88 14.52 124.32 13.51Q123.76 12.50 122.81 11.93Q121.85 11.36 120.60 11.36L120.60 11.36Q119.37 11.36 118.39 11.93Q117.41 12.50 116.86 13.52Q116.32 14.55 116.32 15.87L116.32 15.87L116.32 16.12Q116.32 17.48 116.92 18.52Q117.52 19.55 118.61 20.13Q119.69 20.71 121.08 20.71L121.08 20.71Q122.17 20.71 123.11 20.33Q124.06 19.94 124.74 19.14L124.74 19.14L125.65 20.19Q124.85 21.15 123.66 21.65Q122.46 22.15 121.03 22.15ZM140.79 22.03L139.10 22.03L139.10 7.56L133.50 7.56L133.50 6.10L146.39 6.10L146.39 7.56L140.79 7.56L140.79 22.03ZM157.77 22.03L156.22 22.03L156.22 19.39L156.15 18.96L156.15 14.55Q156.15 13.02 155.30 12.20Q154.45 11.38 152.76 11.38L152.76 11.38Q151.60 11.38 150.55 11.77Q149.51 12.16 148.78 12.79L148.78 12.79L148.05 11.59Q148.96 10.81 150.24 10.39Q151.51 9.97 152.92 9.97L152.92 9.97Q155.24 9.97 156.51 11.12Q157.77 12.27 157.77 14.61L157.77 14.61L157.77 22.03ZM152.10 22.15L152.10 22.15Q150.76 22.15 149.77 21.70Q148.78 21.26 148.25 20.48Q147.73 19.69 147.73 18.67L147.73 18.67Q147.73 17.73 148.18 16.97Q148.62 16.21 149.63 15.74Q150.64 15.27 152.35 15.27L152.35 15.27L156.47 15.27L156.47 16.48L152.40 16.48Q150.67 16.48 150.00 17.09Q149.32 17.71 149.32 18.62L149.32 18.62Q149.32 19.64 150.12 20.26Q150.92 20.87 152.35 20.87L152.35 20.87Q153.72 20.87 154.71 20.25Q155.70 19.62 156.15 18.44L156.15 18.44L156.52 19.55Q156.06 20.74 154.94 21.44Q153.81 22.15 152.10 22.15ZM168.33 22.15L168.33 22.15Q166.76 22.15 165.51 21.43Q164.26 20.71 163.53 19.35Q162.80 17.98 162.80 16.05L162.80 16.05Q162.80 14.09 163.54 12.74Q164.28 11.38 165.53 10.68Q166.78 9.97 168.33 9.97L168.33 9.97Q170.04 9.97 171.39 10.73Q172.75 11.50 173.52 12.86Q174.30 14.23 174.30 16.05L174.30 16.05Q174.30 17.85 173.52 19.22Q172.75 20.60 171.39 21.37Q170.04 22.15 168.33 22.15ZM163.71 22.03L162.16 22.03L162.16 5.14L163.78 5.14L163.78 13.61L163.55 16.03L163.71 18.44L163.71 22.03ZM168.22 20.71L168.22 20.71Q169.49 20.71 170.49 20.13Q171.50 19.55 172.09 18.49Q172.68 17.44 172.68 16.05L172.68 16.05Q172.68 14.64 172.09 13.59Q171.50 12.54 170.49 11.96Q169.49 11.38 168.22 11.38L168.22 11.38Q166.94 11.38 165.93 11.96Q164.92 12.54 164.34 13.59Q163.76 14.64 163.76 16.05L163.76 16.05Q163.76 17.44 164.34 18.49Q164.92 19.55 165.93 20.13Q166.94 20.71 168.22 20.71ZM179.21 22.03L177.60 22.03L177.60 5.14L179.21 5.14L179.21 22.03ZM188.80 22.15L188.80 22.15Q186.93 22.15 185.52 21.36Q184.11 20.58 183.31 19.20Q182.51 17.82 182.51 16.05L182.51 16.05Q182.51 14.27 183.28 12.91Q184.04 11.54 185.37 10.76Q186.70 9.97 188.36 9.97L188.36 9.97Q190.05 9.97 191.36 10.73Q192.67 11.50 193.42 12.87Q194.17 14.25 194.17 16.05L194.17 16.05Q194.17 16.16 194.16 16.29Q194.14 16.41 194.14 16.55L194.14 16.55L183.74 16.55L183.74 15.34L193.28 15.34L192.64 15.82Q192.64 14.52 192.08 13.51Q191.53 12.50 190.57 11.93Q189.61 11.36 188.36 11.36L188.36 11.36Q187.13 11.36 186.15 11.93Q185.18 12.50 184.63 13.52Q184.08 14.55 184.08 15.87L184.08 15.87L184.08 16.12Q184.08 17.48 184.69 18.52Q185.29 19.55 186.37 20.13Q187.45 20.71 188.84 20.71L188.84 20.71Q189.93 20.71 190.88 20.33Q191.82 19.94 192.51 19.14L192.51 19.14L193.42 20.19Q192.62 21.15 191.42 21.65Q190.23 22.15 188.80 22.15Z" transform="translate(0, 0)"></path></g></svg></g> <g transform="rotate(0 387.96234367362337 270.9518375138182)"><svg x="290.9273476409085" y="239.22183224953594" viewBox="0.36000001430511475 24.09000015258789 194.0699920654297 63.46001052856445" height="63.46001052856445" width="194.0699920654297" style="overflow: visible;"><g fill="#000000" style=""><path d="M29.12 87.01L22.47 87.01L22.47 29.84L0.36 29.84L0.36 24.09L51.24 24.09L51.24 29.84L29.12 29.84L29.12 87.01ZM103.19 87.01L96.54 87.01L96.54 29.84L74.43 29.84L74.43 24.09L125.31 24.09L125.31 29.84L103.19 29.84L103.19 87.01ZM171.60 87.55L171.60 87.55Q164.77 87.55 158.70 85.35Q152.63 83.15 148.95 79.46L148.95 79.46L152.09 74.34Q155.15 77.48 160.32 79.55Q165.49 81.62 171.60 81.62L171.60 81.62Q179.42 81.62 183.60 78.20Q187.78 74.79 187.78 69.04L187.78 69.04Q187.78 63.28 183.69 59.87Q179.60 56.45 170.79 56.45L170.79 56.45L166.30 56.45L166.30 51.69L185.71 27.33L186.61 29.84L151.55 29.84L151.55 24.09L192.00 24.09L192.00 28.67L172.59 53.03L169.44 50.97L171.87 50.97Q183.20 50.97 188.81 56.00Q194.43 61.04 194.43 68.95L194.43 68.95Q194.43 74.25 191.91 78.47Q189.40 82.70 184.32 85.13Q179.24 87.55 171.60 87.55Z" transform="translate(0, 0)"></path></g></svg></g></svg>
